console-client/ionicons/svg/subway-sharp.svg

<svg xmlns="http://www.w3.org/2000/svg" class="ionicon" viewBox="0 0 512 512"><title>Subway</title><path d="M392 16H120a24 24 0 00-24 24v336a24 24 0 0024 24h272a24 24 0 0024-24V40a24 24 0 00-24-24zM208 64h95.55c8.61 0 16 6.62 16.43 15.23A16 16 0 01304 96h-95.55c-8.61 0-16-6.62-16.43-15.23A16 16 0 01208 64zm-28.53 287.82a32 32 0 1128.35-28.35 32 32 0 01-28.35 28.35zm160 0a32 32 0 1128.35-28.35 32 32 0 01-28.35 28.35zM384 144v64H128v-64zM298 416l31.37 32H182.63L214 416h-44l-80.57 80h45.2l16-16h210.74l16 16h45.3L343 416h-45z"/></svg>

<svg xmlns="http://www.w3.org/2000/svg" width="512" height="512" viewBox="0 0 512 512"><title>ionicons-v5-q</title><path d="M392,16H120A24,24,0,0,0,96,40V376a24,24,0,0,0,24,24H392a24,24,0,0,0,24-24V40A24,24,0,0,0,392,16ZM208,64h95.55c8.61,0,16,6.62,16.43,15.23A16,16,0,0,1,304,96H208.45c-8.61,0-16-6.62-16.43-15.23A16,16,0,0,1,208,64ZM179.47,351.82a32,32,0,1,1,28.35-28.35A32,32,0,0,1,179.47,351.82Zm160,0a32,32,0,1,1,28.35-28.35A32,32,0,0,1,339.47,351.82ZM384,144v64H128V144Z"/><polygon points="298 416 329.37 448 182.63 448 214 416 170 416 89.43 496 134.63 496 150.63 480 361.37 480 377.37 496 422.67 496 343 416 298 416"/></svg>
